X:1
T:Paddy McMahon's
L:1/8
M:6/8
I:linebreak $
K:D
V:1 treble 
V:1
 f3 edB | BAF FEF | EDB, DFA | BAF Ade | f3 edB | BAF FEF | EDB, DFA |$ Bdc d3 :| f3 afe | %9
 dcd BAF | AFE DFA | BAF EFA | B/c/dB AFA | DFA BAF |$ Ade faf | edc d3 :| %16
